src/assets/img/tools/webstorm.svg

<svg width="24" height="24" fill="none" xmlns="http://www.w3.org/2000/svg"><path d="M0 0v24h24V0H0zm17.889 2.889c1.444 0 2.667.444 3.667 1.278l-1.111 1.667c-.889-.611-1.722-1-2.556-1-.834 0-1.278.389-1.278.889v.056c0 .667.444.889 2.111 1.333 2 .556 3.111 1.278 3.111 3v.056c0 2-1.5 3.111-3.611 3.111-1.5-.056-3-.611-4.167-1.667l1.278-1.556c.889.722 1.833 1.222 2.944 1.222.889 0 1.389-.333 1.389-.944v-.056c0-.556-.333-.833-2-1.278-2-.5-3.222-1.056-3.222-3.056v-.056c0-1.833 1.444-3 3.444-3l.001.001zm-16.111.222h2.278l1.5 5.778 1.722-5.778h1.667l1.667 5.778 1.5-5.778h2.333l-2.833 9.944H9.723L8.112 7.277l-1.667 5.778H4.612L1.779 3.111h-.001zm.5 16.389h9V21h-9v-1.5z" fill="#000"/></svg>

<svg width="24" height="24" viewBox="0 0 24 24" fill="none" xmlns="http://www.w3.org/2000/svg">
    <path d="M0 0V24H24V0H0ZM17.889 2.889C19.333 2.889 20.556 3.333 21.556 4.167L20.445 5.834C19.556 5.223 18.723 4.834 17.889 4.834C17.055 4.834 16.611 5.223 16.611 5.723V5.779C16.611 6.446 17.055 6.668 18.722 7.112C20.722 7.668 21.833 8.39 21.833 10.112V10.168C21.833 12.168 20.333 13.279 18.222 13.279C16.722 13.223 15.222 12.668 14.055 11.612L15.333 10.056C16.222 10.778 17.166 11.278 18.277 11.278C19.166 11.278 19.666 10.945 19.666 10.334V10.278C19.666 9.722 19.333 9.445 17.666 9C15.666 8.5 14.444 7.944 14.444 5.944V5.888C14.444 4.055 15.888 2.888 17.888 2.888L17.889 2.889ZM1.778 3.111H4.056L5.556 8.889L7.278 3.111H8.945L10.612 8.889L12.112 3.111H14.445L11.612 13.055H9.723L8.112 7.277L6.445 13.055H4.612L1.779 3.111H1.778ZM2.278 19.5H11.278V21H2.278V19.5Z"
          fill="black"/>
</svg>
